src/lib/packages/icons/src/assets/filled/shield-user.svg

<svg width="24" height="24" viewBox="0 0 24 24" fill="none" xmlns="http://www.w3.org/2000/svg">
<path d="M12.0181 2C9.77807 3.111 8 4 3 5C3 6.137 3 9.70192 3 10.8889C3 17.5559 8.667 20.889 12 22C15.333 20.889 21 17.5559 21 10.8889C21 9.66392 21 6.194 21 5C16 4 14.2221 3.111 12.0181 2ZM12.0061 7.5C13.1921 7.5 14.156 8.4639 14.156 9.6499C14.156 10.8359 13.1911 11.8 12.0061 11.8C10.8211 11.8 9.85693 10.8359 9.85693 9.6499C9.85693 8.4639 10.8201 7.5 12.0061 7.5ZM15.5 16C15.5 16.276 15.276 16.5 15 16.5H9C8.724 16.5 8.5 16.276 8.5 16V15.697C8.5 14.357 9.48091 13 11.3579 13H12.6411C14.5181 13 15.499 14.356 15.499 15.697V16H15.5Z" fill="currentColor"/>
</svg>

<svg xmlns="http://www.w3.org/2000/svg" width="24" height="24" fill="none"><path fill="currentColor" d="M12.018 2C9.778 3.111 8 4 3 5v5.889c0 6.667 5.667 10 9 11.111 3.333-1.111 9-4.444 9-11.111V5c-5-1-6.778-1.889-8.982-3Zm-.012 5.5c1.186 0 2.15.964 2.15 2.15s-.965 2.15-2.15 2.15a2.151 2.151 0 0 1 0-4.3ZM15.5 16a.5.5 0 0 1-.5.5H9a.5.5 0 0 1-.5-.5v-.303c0-1.34.98-2.697 2.858-2.697h1.283c1.877 0 2.858 1.356 2.858 2.697V16h.001Z"/></svg>
